docs/img/phone.svg

<svg width="40" height="40" viewBox="0 0 40 40" fill="none" xmlns="http://www.w3.org/2000/svg">
<path fill-rule="evenodd" clip-rule="evenodd" d="M14.1663 4.86947C12.7856 4.86947 11.6663 5.98875 11.6663 7.36947V32.6299C11.6663 34.0106 12.7856 35.1299 14.1663 35.1299H25.833C27.2137 35.1299 28.333 34.0106 28.333 32.6299V7.36947C28.333 5.98875 27.2137 4.86947 25.833 4.86947H25.694L25.2881 5.84355C25.0293 6.46458 24.4225 6.86909 23.7497 6.86909H16.2497C15.5769 6.86909 14.9701 6.46458 14.7113 5.84355L14.3053 4.86947H14.1663ZM8.33301 7.36947C8.33301 4.1478 10.9447 1.53613 14.1663 1.53613H25.833C29.0547 1.53613 31.6663 4.1478 31.6663 7.36947V32.6299C31.6663 35.8515 29.0547 38.4632 25.833 38.4632H14.1663C10.9447 38.4632 8.33301 35.8515 8.33301 32.6299V7.36947Z" fill="#FF5A30"/>
</svg>

<svg width="40" height="40" fill="none" xmlns="http://www.w3.org/2000/svg"><path fill-rule="evenodd" clip-rule="evenodd" d="M14.166 4.87a2.5 2.5 0 00-2.5 2.5v25.26a2.5 2.5 0 002.5 2.5h11.667a2.5 2.5 0 002.5-2.5V7.37a2.5 2.5 0 00-2.5-2.5h-.139l-.406.974a1.667 1.667 0 01-1.538 1.025h-7.5c-.673 0-1.28-.404-1.539-1.025l-.406-.975h-.139zm-5.833 2.5a5.833 5.833 0 015.833-5.834h11.667a5.833 5.833 0 015.833 5.833v25.26a5.833 5.833 0 01-5.833 5.834H14.166a5.833 5.833 0 01-5.833-5.833V7.37z" fill="#FF5A30"/></svg>
